COLOR/categories 16/16/applications-utilities.svg

<svg height="16" width="16" xmlns="http://www.w3.org/2000/svg" xmlns:xlink="http://www.w3.org/1999/xlink"><filter id="a" color-interpolation-filters="sRGB" height="1.072" width="1.072" x="-.036" y="-.036"><feGaussianBlur stdDeviation=".06"/></filter><circle cx="4.5" cy="3.4" fill="#ececec" r="2"/><circle cx="4.5" cy="3.4" r="2" style="opacity:.5;fill:none;stroke:#000;stroke-width:.2;stroke-linecap:round;stroke-linejoin:round;filter:url(#a)"/><path d="m3.9921875 0c-.0502 0-.0957013.01503125-.1445313.01953125.21491-.003.3572744-.01623125.6464844-.01953125zm.5136719 0c1.2582.0145 1.6788906-.03060438 2.4316406.38476562.37637.20766001.6732306.55938688.8378906.99804688.16471.43867.2246094.9595775.2246094 1.6171875v1h3v-.2460938c0-1.10799.446-1.7539062 1-1.7539062s1 .6459162 1 1.7539062v.2460938c1.108 0 2-1.392 2-2.5s-.892-1.5-2-1.5zm3.4941406 5v4c1 .5 3.10545 2.35059 6 3-.91305-3.49122-3.5-5.5-6-7zm2.5 3c.27614 0 .69653.47678.875.6875 1.25524 2.24128-.5513.53677-1.375-.1875 0-.27614.22386-.5.5-.5z" fill="#808080"/><path d="m4.4941406 0c-1.2582.0145-1.6788906-.03060438-2.4316406.38476562-.37637.20766001-.6732306.55938688-.8378906.99804688-.16467.43867-.2246094.9595775-.2246094 1.6171875v10c0 .65761.0598994 1.178577.2246094 1.617188.16468.43861.4615306.788523.8378906.996093.75272.41513.6735406.371649 1.9316406.386719h.0019532.5039062.5039062.0019532c1.2581-.0151 1.1789206.028401 1.9316406-.386719.37636-.20757.6732106-.557484.8378906-.996093.16451-.438611.2246094-.959578.2246094-1.617188v-10c0-.65761-.0598994-1.1785175-.2246094-1.6171875-.16466-.43866-.4615206-.79038687-.8378906-.99804688-.75275-.41537-1.1734406-.37026562-2.4316406-.38476562h-.0039063-.0019531-.0019531zm.0058594 1.3964844a2 2 0 0 1 2 2 2 2 0 0 1 -2 2 2 2 0 0 1 -2-2 2 2 0 0 1 2-2z" fill="#e72662"/><path d="m4.4941406 0c-1.2582.0145-1.6788906-.03060437-2.4316406.38476562-.37637.20766002-.6732306.55938688-.8378906.99804688-.16467.43867-.2246094.9595775-.2246094 1.6171875v.5c0-.65761.0599394-1.1785175.2246094-1.6171875.16466-.43866.4615206-.7903869.8378906-.99804688.75275-.41537 1.1734406-.37026562 2.4316406-.38476562h.00391.00195.00195.00391c1.2581988.0145 1.6788894-.03060438 2.4316394.38476562.37637.20765998.6732306.55938688.8378906.99804688.16471.43867.2246094.9595775.2246094 1.6171875v-.5c0-.65761-.0598994-1.1785175-.2246094-1.6171875-.16466-.43866-.4615206-.79038687-.8378906-.99804688-.75275-.41536999-1.1734406-.37026562-2.4316406-.38476562h-.0039063-.0019531-.0019531z" fill="#fff" opacity=".3"/><path d="m4.5058594 16c1.2582-.0145 1.6788906.030604 2.4316406-.384766.37637-.20766.6732306-.559386.8378906-.998046.16467-.43867.2246094-.959578.2246094-1.617188v-.5c0 .65761-.0599394 1.178518-.2246094 1.617188-.16466.43866-.4615206.790386-.8378906.998046-.75275.41537-1.1734406.370266-2.4316406.384766h-.00391-.00195-.00195-.00391c-1.2581988-.0145-1.6788894.030604-2.4316394-.384766-.37637-.20766-.6732306-.559386-.8378906-.998046-.16471-.43867-.2246094-.959578-.2246094-1.617188v.5c0 .65761.059899 1.178518.2246094 1.617188.16466.43866.4615206.790386.8378906.998046.75275.41537 1.1734406.370266 2.4316406.384766h.00391.00195.00195z" opacity=".2"/><path d="m3.9921875 0c-.0502 0-.0957012.01503125-.1445313.01953125.21491-.003.3572744-.01623125.6464844-.01953125zm.5136719 0c1.2582.0145 1.6788906-.03060437 2.4316406.38476562.0595613.03286261.1125987.07538227.1679688.11523438h5.8945312c1.022495 0 1.851276.341377 1.974609 1.2636719.010377-.0883942.025391-.1779038.025391-.2636719 0-1.108-.892-1.5-2-1.5zm3.4941406 5v.5c2.36098 1.4165883 4.781506 3.3030437 5.814453 6.447266.063391.015549.121377.038337.185547.052734-.91305-3.49122-3.5-5.5-6-7zm2.158203 3.6386719c-.09642.0911485-.158203.2181737-.158203.3613281.730142.6420054 2.222076 2.041473 1.679688.7929688-.288228-.0486556-1.011068-.700767-1.521485-1.1542969z" fill="#fff" opacity=".3"/><path d="m14.974609 1.2636719c-.123669 1.053531-.952377 2.2363281-1.974609 2.2363281v-.2460938c0-1.10799-.446-1.7539062-1-1.7539062s-1 .6459162-1 1.7539062v.2460938h-3v.5h3v-.2460938c0-1.10799.446-1.7539062 1-1.7539062s1 .6459162 1 1.7539062v.2460938c1.108 0 2-1.392 2-2.5 0-.085505-.01508-.159202-.02539-.2363281zm-4.474609 6.2363281c-.27614 0-.5.22386-.5.5.04403.038715.109174.095107.158203.1386719.089571-.084674.208811-.1386719.341797-.1386719.27614 0 .69653.47678.875.6875.142574.2545708.235187.4454893.304688.6054688.202029.0341044.184932-.2312331-.304688-1.1054688-.17847-.21072-.59886-.6875-.875-.6875zm-2.5 1v.5c1 .5 3.10545 2.35059 6 3-.05077-.194139-.124725-.367596-.185547-.552734-2.796016-.685865-4.8366223-2.4583506-5.814453-2.947266z" opacity=".2"/></svg>

<?xml version="1.0" encoding="UTF-8" standalone="no"?>
<svg
   xmlns:osb="http://www.openswatchbook.org/uri/2009/osb"
   xmlns:dc="http://purl.org/dc/elements/1.1/"
   xmlns:cc="http://creativecommons.org/ns#"
   xmlns:rdf="http://www.w3.org/1999/02/22-rdf-syntax-ns#"
   xmlns:svg="http://www.w3.org/2000/svg"
   xmlns="http://www.w3.org/2000/svg"
   xmlns:sodipodi="http://sodipodi.sourceforge.net/DTD/sodipodi-0.dtd"
   xmlns:inkscape="http://www.inkscape.org/namespaces/inkscape"
   height="16"
   id="svg7384"
   version="1.1"
   width="16"
   sodipodi:docname="applications-utilities.svg"
   inkscape:version="0.92.4 (5da689c313, 2019-01-14)">
  <sodipodi:namedview
     pagecolor="#ffffff"
     bordercolor="#666666"
     borderopacity="1"
     objecttolerance="10"
     gridtolerance="10"
     guidetolerance="10"
     inkscape:pageopacity="0"
     inkscape:pageshadow="2"
     inkscape:window-width="1920"
     inkscape:window-height="1016"
     id="namedview8927"
     showgrid="false"
     inkscape:zoom="52.4375"
     inkscape:cx="0.69602677"
     inkscape:cy="9.5256257"
     inkscape:window-x="0"
     inkscape:window-y="27"
     inkscape:window-maximized="1"
     inkscape:current-layer="svg7384" />
  <metadata
     id="metadata20854">
    <rdf:RDF>
      <cc:Work
         rdf:about="">
        <dc:title />
        <dc:format>image/svg+xml</dc:format>
        <dc:type
           rdf:resource="http://purl.org/dc/dcmitype/StillImage" />
      </cc:Work>
    </rdf:RDF>
  </metadata>
  <defs
     id="defs7386">
    <linearGradient
       id="linearGradient5606"
       osb:paint="solid">
      <stop
         id="stop5608"
         offset="0"
         style="stop-color:#000000;stop-opacity:1;" />
    </linearGradient>
    <linearGradient
       id="linearGradient4526"
       osb:paint="solid">
      <stop
         id="stop4528"
         offset="0"
         style="stop-color:#ffffff;stop-opacity:1;" />
    </linearGradient>
    <linearGradient
       id="linearGradient3600-4"
       osb:paint="gradient">
      <stop
         id="stop3602-7"
         offset="0"
         style="stop-color:#f4f4f4;stop-opacity:1" />
      <stop
         id="stop3604-6"
         offset="1"
         style="stop-color:#dbdbdb;stop-opacity:1" />
    </linearGradient>
    <filter
       inkscape:collect="always"
       style="color-interpolation-filters:sRGB"
       id="filter848"
       x="-0.036"
       width="1.072"
       y="-0.036"
       height="1.072">
      <feGaussianBlur
         inkscape:collect="always"
         stdDeviation="0.06"
         id="feGaussianBlur850" />
    </filter>
  </defs>
  <circle
     style="opacity:1;fill:#ececec;fill-opacity:1;stroke:none;stroke-width:0.31563663;stroke-linecap:round;stroke-linejoin:round;stroke-miterlimit:4;stroke-dasharray:none;stroke-opacity:1"
     id="path834"
     cx="4.5"
     cy="3.4000001"
     r="2" />
  <circle
     r="2"
     cy="3.4000001"
     cx="4.5"
     id="circle838"
     style="opacity:0.5;fill:none;fill-opacity:1;stroke:#000000;stroke-width:0.2;stroke-linecap:round;stroke-linejoin:round;stroke-miterlimit:4;stroke-dasharray:none;stroke-opacity:1;filter:url(#filter848)" />
  <g
     id="layer9"
     label="status"
     style="display:inline"
     transform="translate(-773.00024,-92.999939)" />
  <g
     id="layer2"
     style="display:inline"
     transform="translate(-532.00004,-459.99994)" />
  <g
     id="layer4"
     style="display:inline"
     transform="translate(-532.00004,-459.99994)" />
  <g
     id="g1812"
     style="display:inline"
     transform="translate(-532.00004,-459.99994)" />
  <g
     id="g6217"
     style="display:inline"
     transform="translate(-532.00004,-459.99994)" />
  <g
     id="g1833"
     style="display:inline"
     transform="translate(-532.00004,-459.99994)" />
  <g
     id="layer1"
     style="display:inline"
     transform="translate(-532.00004,-459.99994)" />
  <path
     style="opacity:1;vector-effect:none;fill:#808080;fill-opacity:1;stroke:none;stroke-width:0.99999994;stroke-linecap:round;stroke-linejoin:round;stroke-miterlimit:4;stroke-dasharray:none;stroke-dashoffset:0;stroke-opacity:1"
     d="M 3.9921875 0 C 3.9419875 0 3.8964862 0.01503125 3.8476562 0.01953125 C 4.0625662 0.01653125 4.2049306 0.0033 4.4941406 0 L 3.9921875 0 z M 4.5058594 0 C 5.7640594 0.0145 6.18475 -0.030604375 6.9375 0.38476562 C 7.31387 0.59242563 7.6107306 0.9441525 7.7753906 1.3828125 C 7.9401006 1.8214825 8 2.34239 8 3 L 8 4 L 11 4 L 11 3.7539062 C 11 2.6459162 11.446 2 12 2 C 12.554 2 13 2.6459162 13 3.7539062 L 13 4 C 14.108 4 15 2.608 15 1.5 C 15 0.392 14.108 0 13 0 L 4.5058594 0 z M 8 5 L 8 9 C 9 9.5 11.10545 11.35059 14 12 C 13.08695 8.50878 10.5 6.5 8 5 z M 10.5 8 C 10.77614 8 11.19653 8.47678 11.375 8.6875 C 12.63024 10.92878 10.8237 9.22427 10 8.5 C 10 8.22386 10.22386 8 10.5 8 z "
     id="rect6717" />
  <path
     style="color:#000000;font-style:normal;font-variant:normal;font-weight:normal;font-stretch:normal;font-size:medium;line-height:normal;font-family:sans-serif;font-variant-ligatures:normal;font-variant-position:normal;font-variant-caps:normal;font-variant-numeric:normal;font-variant-alternates:normal;font-feature-settings:normal;text-indent:0;text-align:start;text-decoration:none;text-decoration-line:none;text-decoration-style:solid;text-decoration-color:#000000;letter-spacing:normal;word-spacing:normal;text-transform:none;writing-mode:lr-tb;direction:ltr;text-orientation:mixed;dominant-baseline:auto;baseline-shift:baseline;text-anchor:start;white-space:normal;shape-padding:0;clip-rule:nonzero;display:inline;overflow:visible;visibility:visible;opacity:1;isolation:auto;mix-blend-mode:normal;color-interpolation:sRGB;color-interpolation-filters:linearRGB;solid-color:#000000;solid-opacity:1;vector-effect:none;fill:#e72662;fill-opacity:1;fill-rule:nonzero;stroke:none;stroke-width:1.00000012;stroke-linecap:butt;stroke-linejoin:miter;stroke-miterlimit:4;stroke-dasharray:none;stroke-dashoffset:0;stroke-opacity:1;marker:none;color-rendering:auto;image-rendering:auto;shape-rendering:auto;text-rendering:auto;enable-background:accumulate"
     d="M 4.4941406 0 C 3.2359406 0.0145 2.81525 -0.030604375 2.0625 0.38476562 C 1.68613 0.59242563 1.3892694 0.9441525 1.2246094 1.3828125 C 1.0599394 1.8214825 1 2.34239 1 3 L 1 13 C 1 13.65761 1.0598994 14.178577 1.2246094 14.617188 C 1.3892894 15.055798 1.68614 15.405711 2.0625 15.613281 C 2.81522 16.028411 2.7360406 15.98493 3.9941406 16 L 3.9960938 16 L 4.5 16 L 5.0039062 16 L 5.0058594 16 C 6.2639594 15.9849 6.18478 16.028401 6.9375 15.613281 C 7.31386 15.405711 7.6107106 15.055797 7.7753906 14.617188 C 7.9399006 14.178577 8 13.65761 8 13 L 8 3 C 8 2.34239 7.9401006 1.8214825 7.7753906 1.3828125 C 7.6107306 0.9441525 7.31387 0.59242563 6.9375 0.38476562 C 6.18475 -0.030604375 5.7640594 0.0145 4.5058594 0 L 4.5019531 0 L 4.5 0 L 4.4980469 0 L 4.4941406 0 z M 4.5 1.3964844 A 2 2 0 0 1 6.5 3.3964844 A 2 2 0 0 1 4.5 5.3964844 A 2 2 0 0 1 2.5 3.3964844 A 2 2 0 0 1 4.5 1.3964844 z "
     id="path1817-9-6-6" />
  <path
     style="color:#000000;font-style:normal;font-variant:normal;font-weight:normal;font-stretch:normal;font-size:medium;line-height:normal;font-family:sans-serif;font-variant-ligatures:normal;font-variant-position:normal;font-variant-caps:normal;font-variant-numeric:normal;font-variant-alternates:normal;font-feature-settings:normal;text-indent:0;text-align:start;text-decoration:none;text-decoration-line:none;text-decoration-style:solid;text-decoration-color:#000000;letter-spacing:normal;word-spacing:normal;text-transform:none;writing-mode:lr-tb;direction:ltr;text-orientation:mixed;dominant-baseline:auto;baseline-shift:baseline;text-anchor:start;white-space:normal;shape-padding:0;clip-rule:nonzero;display:inline;overflow:visible;visibility:visible;opacity:0.3;isolation:auto;mix-blend-mode:normal;color-interpolation:sRGB;color-interpolation-filters:linearRGB;solid-color:#000000;solid-opacity:1;vector-effect:none;fill:#ffffff;fill-opacity:1;fill-rule:nonzero;stroke:none;stroke-width:1.00000012;stroke-linecap:butt;stroke-linejoin:miter;stroke-miterlimit:4;stroke-dasharray:none;stroke-dashoffset:0;stroke-opacity:1;marker:none;color-rendering:auto;image-rendering:auto;shape-rendering:auto;text-rendering:auto;enable-background:accumulate"
     d="M 4.4941406,0 C 3.2359406,0.0145 2.81525,-0.03060437 2.0625,0.38476562 1.68613,0.59242564 1.3892694,0.9441525 1.2246094,1.3828125 1.0599394,1.8214825 1,2.34239 1,3 V 3.5 C 1,2.84239 1.0599394,2.3214825 1.2246094,1.8828125 1.3892694,1.4441525 1.68613,1.0924256 2.0625,0.88476562 2.81525,0.46939562 3.2359406,0.5145 4.4941406,0.5 h 0.00391 0.00195 0.00195 0.00391 C 5.7640594,0.5145 6.18475,0.46939562 6.9375,0.88476562 7.31387,1.0924256 7.6107306,1.4441525 7.7753906,1.8828125 7.9401006,2.3214825 8,2.84239 8,3.5 V 3 C 8,2.34239 7.9401006,1.8214825 7.7753906,1.3828125 7.6107306,0.9441525 7.31387,0.59242563 6.9375,0.38476562 6.18475,-0.03060437 5.7640594,0.0145 4.5058594,0 H 4.5019531 4.5 4.4980469 Z"
     id="path856"
     inkscape:connector-curvature="0"
     sodipodi:nodetypes="cccscccccccccccsccccccc" />
  <path
     sodipodi:nodetypes="cccscccccccccccsccccccc"
     inkscape:connector-curvature="0"
     id="path861"
     d="M 4.5058594,16 C 5.7640594,15.9855 6.18475,16.030604 6.9375,15.615234 7.31387,15.407574 7.6107306,15.055848 7.7753906,14.617188 7.9400606,14.178518 8,13.65761 8,13 V 12.5 C 8,13.15761 7.9400606,13.678518 7.7753906,14.117188 7.6107306,14.555848 7.31387,14.907574 6.9375,15.115234 6.18475,15.530604 5.7640594,15.4855 4.5058594,15.5 h -0.00391 -0.00195 -0.00195 -0.00391 C 3.2359406,15.4855 2.81525,15.530604 2.0625,15.115234 1.68613,14.907574 1.3892694,14.555848 1.2246094,14.117188 1.0598994,13.678518 1,13.15761 1,12.5 V 13 c 0,0.65761 0.059899,1.178518 0.2246094,1.617188 0.16466,0.43866 0.4615206,0.790386 0.8378906,0.998046 C 2.81525,16.030604 3.2359406,15.9855 4.4941406,16 h 0.00391 0.00195 0.00195 z"
     style="color:#000000;font-style:normal;font-variant:normal;font-weight:normal;font-stretch:normal;font-size:medium;line-height:normal;font-family:sans-serif;font-variant-ligatures:normal;font-variant-position:normal;font-variant-caps:normal;font-variant-numeric:normal;font-variant-alternates:normal;font-feature-settings:normal;text-indent:0;text-align:start;text-decoration:none;text-decoration-line:none;text-decoration-style:solid;text-decoration-color:#000000;letter-spacing:normal;word-spacing:normal;text-transform:none;writing-mode:lr-tb;direction:ltr;text-orientation:mixed;dominant-baseline:auto;baseline-shift:baseline;text-anchor:start;white-space:normal;shape-padding:0;clip-rule:nonzero;display:inline;overflow:visible;visibility:visible;opacity:0.2;isolation:auto;mix-blend-mode:normal;color-interpolation:sRGB;color-interpolation-filters:linearRGB;solid-color:#000000;solid-opacity:1;vector-effect:none;fill:#000000;fill-opacity:1;fill-rule:nonzero;stroke:none;stroke-width:1.00000012;stroke-linecap:butt;stroke-linejoin:miter;stroke-miterlimit:4;stroke-dasharray:none;stroke-dashoffset:0;stroke-opacity:1;marker:none;color-rendering:auto;image-rendering:auto;shape-rendering:auto;text-rendering:auto;enable-background:accumulate" />
  <path
     style="opacity:0.3;vector-effect:none;fill:#ffffff;fill-opacity:1;stroke:none;stroke-width:0.99999994;stroke-linecap:round;stroke-linejoin:round;stroke-miterlimit:4;stroke-dasharray:none;stroke-dashoffset:0;stroke-opacity:1"
     d="M 3.9921875 0 C 3.9419875 0 3.8964863 0.01503125 3.8476562 0.01953125 C 4.0625662 0.01653125 4.2049306 0.0033 4.4941406 0 L 3.9921875 0 z M 4.5058594 0 C 5.7640594 0.0145 6.18475 -0.03060437 6.9375 0.38476562 C 6.9970613 0.41762823 7.0500987 0.46014789 7.1054688 0.5 L 13 0.5 C 14.022495 0.5 14.851276 0.841377 14.974609 1.7636719 C 14.984986 1.6752777 15 1.5857681 15 1.5 C 15 0.392 14.108 0 13 0 L 4.5058594 0 z M 8 5 L 8 5.5 C 10.36098 6.9165883 12.781506 8.8030437 13.814453 11.947266 C 13.877844 11.962815 13.93583 11.985603 14 12 C 13.08695 8.50878 10.5 6.5 8 5 z M 10.158203 8.6386719 C 10.061783 8.7298204 10 8.8568456 10 9 C 10.730142 9.6420054 12.222076 11.041473 11.679688 9.7929688 C 11.39146 9.7443132 10.66862 9.0922018 10.158203 8.6386719 z "
     id="path873" />
  <path
     style="opacity:0.2;vector-effect:none;fill:#000000;fill-opacity:1;stroke:none;stroke-width:0.99999994;stroke-linecap:round;stroke-linejoin:round;stroke-miterlimit:4;stroke-dasharray:none;stroke-dashoffset:0;stroke-opacity:1"
     d="M 8,3 Z M 14.974609,1.2636719 C 14.85094,2.3172029 14.022232,3.5 13,3.5 V 3.2539062 C 13,2.1459162 12.554,1.5 12,1.5 11.446,1.5 11,2.1459162 11,3.2539062 V 3.5 H 8 V 4 h 3 V 3.7539062 C 11,2.6459162 11.446,2 12,2 c 0.554,0 1,0.6459162 1,1.7539062 V 4 c 1.108,0 2,-1.392 2,-2.5 0,-0.085505 -0.01508,-0.159202 -0.02539,-0.2363281 z M 10.5,7.5 C 10.22386,7.5 10,7.72386 10,8 c 0.04403,0.038715 0.109174,0.095107 0.158203,0.1386719 C 10.247774,8.0539979 10.367014,8 10.5,8 c 0.27614,0 0.69653,0.47678 0.875,0.6875 0.142574,0.2545708 0.235187,0.4454893 0.304688,0.6054688 C 11.881717,9.3270732 11.86462,9.0617357 11.375,8.1875 11.19653,7.97678 10.77614,7.5 10.5,7.5 Z M 8,8.5 V 9 c 1,0.5 3.10545,2.35059 6,3 -0.05077,-0.194139 -0.124725,-0.367596 -0.185547,-0.552734 C 11.018437,10.761401 8.9778307,8.9889154 8,8.5 Z"
     id="path878"
     inkscape:connector-curvature="0"
     sodipodi:nodetypes="ccccsssccccssscscsccscccsccccc" />
</svg>
